X:93
T:King Of Prussians Quick Step. JBs.093
S:Jas.Blackshaw MS, 1837, N.Shropshire
A:North Shropshire
Z:T. Weatherall 2006
M:6/8
L:1/8
Q:3/8=120
R:Qickstep
K:F
F|F2AA2c|c2fa2f|f2g ece|f2ac2{BAG}F|!
F2AA2c|c2fa2f|g2g ece|f3f2:|!
|:c|c2f fed|c2fA2B|c2f fed|c3dcB|!
A2A BAB|c2fa2f|g2g ece|f3f2:|!
|:â€Bugleâ€z{c}|f2z {c}c2z{c}|afa â€œfluteâ€câ€™zcâ€™|\
afcâ€™ afa|câ€™3z{c}z{c}z{c}|!
b2zg2z|ege c2f|ege ceg|f2zf2:|

